X:1
T:Herga, 87.87.87 D
T:Herga, 87.87.87 D
T:Percy Carter Buck, 1904
T:Public Domain Courtesy of the Cyber Hymnal™
C:Percy Carter Buck, 1904
Z:Public Domain
Z:Courtesy of the Cyber Hymnal™
%%score ( 1 2 ) ( 3 4 )
L:1/8
Q:1/4=112
M:4/4
K:C
V:1 treble 
V:2 treble 
V:3 bass 
V:4 bass 
V:1
 [Gc]2 [DG]2 [EA]2 [B,E]2 | [CF]2 [CG]2 [FA]2 [Ec]2 | [^Fe]2 [Gd]2 [Gc]2 [GB]2 | A3 z A [GB]4 | %4
 [Gc]2 [DG]2 [EA]2 [B,E]2 | [CF]2 [CG]2 [FA]2 [Ec]2 | [Ff]2 [Ge]2 [Ad]2 [FA]2 | [Dc]2 [DB]2 [Ec]4 | %8
 [D_B]2 [DA]2 [DG]2 [DE]2 | [^CA]2 [EG]2 ([DF][EG]) [FA]2 | [Ec]2 [EB]2 [EA]2 [^EF]2 | %11
 [^DB]2 [^FA]2 [EG]4 | [Gd]2 [Gc]2 B2 [AB]2 | [^Ge]2 [Bd]2 (cd) [Ae]2 | [Ac]2 [Gc]2 (AB) [Ec]2 | %15
 [Ff]2 [Bd]2 [GB]4 | [Gc]2 [DG]2 [EA]2 [B,E]2 | [CF]2 [CG]2 [FA]2 [Ec]2 | %18
 [^Fe]2 [Gd]2 [Gc]2 [GB]2 | A3 z A [GB]4 | [Gc]2 [DG]2 [EA]2 [B,E]2 | [CF]2 [CG]2 [FA]2 [Ec]2 | %22
 [Ff]2 [Ge]2 [Ad]2 [FA]2 | [Dc]2 [DB]2 [Ec]4 |] %24
V:2
 x8 | x8 | x8 | G2 ^F2 x5 | x8 | x8 | x8 | x8 | x8 | x8 | x8 | x8 | x4 (^FG) x2 | x4 A2 x2 | %14
 x4 F2 x2 | x8 | x8 | x8 | x8 | G2 ^F2 x5 | x8 | x8 | x8 | x8 |] %24
V:3
 [CE]2 [B,D]2 [A,C]2 [G,B,]2 | [F,A,]2 [E,G,]2 [D,F,]2 [C,G,]2 | [A,,C]2 [B,,D]2 [C,E]2 [E,B,]2 | %3
 [C,E]2 [D,D]2 [G,D]4 x | [CE]2 [B,D]2 [A,C]2 [G,B,]2 | [F,A,]2 [E,G,]2 [D,F,]2 [C,C]2 | %6
 (A,B,) [E,^C]2 [F,D]2 [D,D]2 | G,2 G,2 [C,G,]4 | [G,,G,]2 [A,,F,]2 [_B,,G,]2 [G,,_B,]2 | %9
 [A,,A,]2 [^C,A,]2 [D,A,]2 [D,A,]2 | [A,,A,]2 [B,,G,]2 [C,^F,]2 [A,,C]2 | %11
 [B,,B,]2 [^D,B,]2 [E,B,]4 | [B,,D]2 [C,E]2 [D,D]2 [^D,B,]2 | [E,B,]2 [^G,E]2 [A,E]2 [A,,C]2 | %14
 [F,C]2 [E,C]2 [D,F,]2 [C,C]2 | [D,A,]2 [F,D]2 [G,D]4 | [A,C]2 [B,D]2 [A,C]2 [G,B,]2 | %17
 [F,A,]2 [E,G,]2 [D,F,]2 [C,G,]2 | [A,,C]2 [B,,D]2 [C,E]2 [E,B,]2 | [C,E]2 [D,D]2 [G,D]4 x | %20
 [CE]2 [B,D]2 [A,C]2 [G,B,]2 | [F,A,]2 [E,G,]2 [D,F,]2 [C,C]2 | (A,B,) [E,^C]2 [F,D]2 [D,D]2 | %23
 G,2 G,2 [C,G,]4 |] %24
V:4
 x8 | x8 | x8 | x9 | x8 | x8 | D,2 x6 | G,2 G,2 x4 | x8 | x8 | x8 | x8 | x8 | x8 | x8 | x8 | x8 | %17
 x8 | x8 | x9 | x8 | x8 | D,2 x6 | G,2 G,2 x4 |] %24

